X: 586
T: Acharavi, The
R: waltz
M: 3/4
K: Amixolydian
2 d3 e c>G|A2 A>D E>G|A A>D E>G|B4 (3BBA|
2 d3 e c>G|A2 A>D E>G|A2 A>D E>G|B3||

